svgs/sharp-regular/bars-progress.svg

<svg xmlns="http://www.w3.org/2000/svg" viewBox="0 0 512 512"><!--! Font Awesome Pro 6.6.0 by @fontawesome - https://fontawesome.com License - https://fontawesome.com/license (Commercial License) Copyright 2024 Fonticons, Inc. --><path d="M464 112l0 64-144 0 0-64 144 0zM48 64L0 64l0 48 0 64 0 48 48 0 416 0 48 0 0-48 0-64 0-48-48 0L48 64zM464 336l0 64-272 0 0-64 272 0zM48 288L0 288l0 48 0 64 0 48 48 0 416 0 48 0 0-48 0-64 0-48-48 0L48 288z"/></svg>

<svg xmlns="http://www.w3.org/2000/svg" viewBox="0 0 512 512"><!--! Font Awesome Pro 6.4.2 by @fontawesome - https://fontawesome.com License - https://fontawesome.com/license (Commercial License) Copyright 2023 Fonticons, Inc. --><path d="M464 112v64H320V112H464zM48 64H0v48 64 48H48 464h48V176 112 64H464 48zM464 336v64H192V336H464zM48 288H0v48 64 48H48 464h48V400 336 288H464 48z"/></svg>
